Yaru++/status/16/software-update-available.svg

<svg height="16" width="16" xmlns="http://www.w3.org/2000/svg">
  <path d="m8 0-2.31 1.65-2.833.221-.709 2.75-2.027 1.99 1.225 2.563-.274 2.826 2.586 1.176 1.606 2.342 2.736-.76 2.736.76 1.606-2.342 2.586-1.176-.274-2.826 1.226-2.564-2.027-1.99-.71-2.75-2.831-.22zm0 3.68c1.4 2.106 2.118 4.322 2.588 5.32h-1.588v3h-2v-3h-1.65c.47-.998 1.25-3.214 2.65-5.32z" fill="#808080"/>
</svg>

<svg height="16" width="16" xmlns="http://www.w3.org/2000/svg">
    <path d="M8 0L5.69 1.65l-2.833.221-.709 2.75-2.027 1.99 1.225 2.563L1.072 12l2.586 1.176 1.606 2.342L8 14.758l2.736.76 1.606-2.342L14.928 12l-.274-2.826L15.88 6.61l-2.027-1.99-.71-2.75-2.831-.22zm0 3.68C9.4 5.786 10.118 8.002 10.588 9H9v3H7V9H5.35C5.82 8.002 6.6 5.786 8 3.68z" style="line-height:normal;font-variant-ligatures:normal;font-variant-position:normal;font-variant-caps:normal;font-variant-numeric:normal;font-variant-alternates:normal;font-feature-settings:normal;text-indent:0;text-align:start;text-decoration-line:none;text-decoration-style:solid;text-decoration-color:#000;text-transform:none;text-orientation:mixed;shape-padding:0;isolation:auto;mix-blend-mode:normal;marker:none" color="#000" font-weight="400" font-family="sans-serif" white-space="normal" overflow="visible" fill="gray"/>
</svg>
